packages/gestalt-icons-android/vr-theme/ic_vr_draw_gestalt.svg

<svg width="24" height="24" viewBox="0 0 24 24" fill="none" xmlns="http://www.w3.org/2000/svg">
<path fill-rule="evenodd" clip-rule="evenodd" d="M3.84946 2.70066C3.05438 3.16531 2.25165 3.9976 1.79992 4.59991L0.199947 3.39993C0.748193 2.66894 1.7388 1.61771 2.84035 0.973943C3.3905 0.652432 4.05645 0.380268 4.76191 0.379495C5.52384 0.378661 6.23799 0.696707 6.78078 1.37539C7.24111 1.95097 7.34078 2.62017 7.25196 3.24395C7.1674 3.83772 6.91052 4.42454 6.61089 4.96094C6.09165 5.89051 5.30368 6.90398 4.5733 7.84338C4.46706 7.98003 4.36204 8.11511 4.25923 8.24814C3.40167 9.35785 2.7032 10.3192 2.39366 11.1002C2.24276 11.481 2.23139 11.7081 2.25446 11.8284C2.26859 11.9021 2.30504 12.0117 2.5299 12.1522C2.7187 12.2702 2.9235 12.3038 3.25794 12.1809C3.63647 12.0417 4.11252 11.7185 4.68414 11.1779C5.82613 10.098 7.05852 8.43956 8.35315 6.69151L8.39776 6.63128C9.63962 4.95441 10.9471 3.18896 12.184 2.04233C12.8067 1.46505 13.5039 0.954426 14.2523 0.734768C15.0758 0.493044 15.9251 0.619451 16.6504 1.24119C17.4639 1.93847 17.5674 2.91772 17.3912 3.79499C17.2204 4.6449 16.7658 5.56975 16.205 6.48963C15.1272 8.25756 13.4502 10.3299 11.8209 12.3434C11.7437 12.4388 11.6666 12.534 11.5897 12.6291C9.85553 14.7732 8.20961 16.8317 7.23407 18.5295C6.74233 19.3854 6.47914 20.0534 6.41609 20.5328C6.36021 20.9577 6.46597 21.0997 6.59982 21.2001C6.76574 21.3245 6.94524 21.3705 7.26216 21.2789C7.62877 21.1728 8.1087 20.8932 8.70594 20.3975C9.89692 19.4089 11.2326 17.8417 12.6777 16.1462L12.6841 16.1387C14.0934 14.4851 15.602 12.7165 17.0554 11.4979C17.7841 10.887 18.5556 10.3646 19.348 10.0735C20.159 9.77557 21.0446 9.70376 21.9057 10.0865C22.6547 10.4194 23.2014 10.9547 23.5243 11.6393C23.8381 12.3045 23.9113 13.0462 23.8451 13.774C23.7143 15.2129 23.0207 16.8109 22.0801 18.2623C21.1301 19.7285 19.8691 21.1366 18.4948 22.1885C17.1404 23.2252 15.5642 24 13.9997 24V22C14.9351 22 16.0852 21.5143 17.2792 20.6004C18.4534 19.7016 19.563 18.4691 20.4018 17.1747C21.25 15.8657 21.7633 14.5835 21.8533 13.5929C21.8976 13.1058 21.8348 12.7454 21.7155 12.4925C21.6053 12.259 21.422 12.0601 21.0934 11.914C20.8295 11.7968 20.5022 11.7801 20.0376 11.9508C19.5544 12.1283 18.9876 12.4878 18.3403 13.0305C17.042 14.119 15.6484 15.7439 14.2062 17.436C14.1743 17.4734 14.1423 17.5109 14.1104 17.5484C12.7358 19.1614 11.3086 20.8363 9.98331 21.9363C9.30615 22.4984 8.57466 22.9811 7.81795 23.2C7.01156 23.4333 6.15586 23.367 5.39985 22.8C4.53372 22.1504 4.31135 21.1986 4.4332 20.272C4.54789 19.3999 4.96828 18.4586 5.49996 17.5332C6.57125 15.6686 8.33151 13.4772 10.0347 11.3714C10.0959 11.2958 10.157 11.2202 10.218 11.1448C11.8896 9.07869 13.4911 7.0991 14.4974 5.44857C15.0225 4.58724 15.3296 3.90275 15.4304 3.40113C15.5256 2.92686 15.4103 2.81238 15.3489 2.75967C15.1789 2.61398 15.0441 2.58668 14.8155 2.65377C14.5118 2.74293 14.0888 3.00364 13.5436 3.50901C12.4596 4.51392 11.2575 6.13037 9.96033 7.88181L9.91916 7.93741C8.67333 9.61962 7.34249 11.4166 6.05828 12.631C5.40972 13.2444 4.70011 13.7815 3.94803 14.058C3.15187 14.3507 2.2811 14.3552 1.46992 13.8482C0.8402 13.4546 0.42321 12.8981 0.290299 12.2051C0.166331 11.5587 0.314313 10.9186 0.534415 10.3633C0.966886 9.27218 1.85704 8.08592 2.67674 7.02521C2.78534 6.88468 2.89318 6.74578 2.99972 6.60855C3.74442 5.64931 4.42584 4.77158 4.86486 3.98563C5.11354 3.54045 5.23762 3.2032 5.27197 2.962C5.30205 2.7508 5.25855 2.67412 5.21889 2.62453C5.05506 2.41968 4.91591 2.37929 4.7641 2.37945C4.55585 2.37968 4.24764 2.46796 3.84946 2.70066Z" fill="black"/>
</svg>

<svg xmlns="http://www.w3.org/2000/svg" width="24" height="24"><path d="M3.85 2.7c-.8.47-1.6 1.3-2.05 1.9L.2 3.4A10 10 0 0 1 2.84.97a4 4 0 0 1 1.92-.6c.76 0 1.48.33 2.02 1 .46.58.56 1.25.47 1.87a5 5 0 0 1-.64 1.72c-.52.93-1.3 1.94-2.04 2.88q-.15.21-.31.4a14 14 0 0 0-1.87 2.86c-.15.38-.16.6-.14.73.02.07.06.18.28.32.19.12.4.15.73.03q.57-.2 1.42-1a37 37 0 0 0 3.67-4.49l.05-.06a35 35 0 0 1 3.78-4.59 5.5 5.5 0 0 1 2.07-1.3 2.5 2.5 0 0 1 2.4.5c.81.7.92 1.68.74 2.55a9 9 0 0 1-1.18 2.7c-1.08 1.77-2.76 3.84-4.39 5.85l-.23.29a52 52 0 0 0-4.36 5.9q-.73 1.29-.81 2c-.06.43.05.57.18.67.17.12.35.17.66.08q.55-.15 1.45-.88c1.19-1 2.52-2.56 3.97-4.25v-.01a41 41 0 0 1 4.38-4.64 8 8 0 0 1 2.29-1.43c.8-.3 1.7-.37 2.56.02q1.13.5 1.61 1.55c.32.66.4 1.4.33 2.13a10.5 10.5 0 0 1-1.77 4.5 16 16 0 0 1-3.59 3.92C17.14 23.23 15.56 24 14 24v-2c.94 0 2.09-.49 3.28-1.4 1.17-.9 2.28-2.13 3.12-3.43a8.5 8.5 0 0 0 1.45-3.58q.05-.71-.13-1.1-.15-.35-.63-.58c-.26-.11-.59-.13-1.05.04q-.73.27-1.7 1.08a39 39 0 0 0-4.13 4.4l-.1.12a38 38 0 0 1-4.13 4.39 6 6 0 0 1-2.16 1.26c-.8.23-1.66.17-2.42-.4-.87-.65-1.09-1.6-.97-2.53.12-.87.54-1.81 1.07-2.74a53 53 0 0 1 4.53-6.16l.19-.23a60 60 0 0 0 4.28-5.7q.78-1.28.93-2.04c.1-.47-.02-.59-.08-.64-.17-.15-.3-.17-.53-.1q-.45.1-1.28.85a34 34 0 0 0-3.58 4.37l-.04.06a38 38 0 0 1-3.86 4.7 7 7 0 0 1-2.11 1.42c-.8.3-1.67.3-2.48-.21A2.5 2.5 0 0 1 .29 12.2c-.12-.65.02-1.3.24-1.85a16 16 0 0 1 2.15-3.33q.15-.22.32-.42c.74-.96 1.43-1.84 1.86-2.62q.37-.67.41-1.03.03-.28-.05-.34c-.16-.2-.3-.24-.46-.24q-.3-.01-.91.32"/></svg>
